icons/1_Primary/Cloudinary.svg

<svg width="1024" height="1024" fill="none" xmlns="http://www.w3.org/2000/svg"><g clip-path="url(#a)"><path d="M512 1024c282.77 0 512-229.23 512-512S794.77 0 512 0 0 229.23 0 512s229.23 512 512 512Z" fill="#54688C"/><path d="M509.08 292.75a195.782 195.782 0 0 0-173.6 103.15 147.62 147.62 0 0 0-35.64 279.44l3.73 1.72h.21v-42a110.215 110.215 0 0 1-49.874-118.202A110.218 110.218 0 0 1 349.7 431.52l10.3-1.05 4.52-9.45a158.708 158.708 0 0 1 144.52-90.84A161.563 161.563 0 0 1 665 453.65l3.45 14.18 14.59.24a91.634 91.634 0 0 1 89.7 91.21c0 34.88-20.11 63.34-54.23 77.8v39.85l2.45-.83c55-18 89.22-62.75 89.22-116.81a129.342 129.342 0 0 0-112.4-127.61 199.538 199.538 0 0 0-188.71-138.93h.01ZM388.76 468a1.583 1.583 0 0 0-1.15.5l-55 54.92a1.66 1.66 0 0 0 1.17 2.79h14a1.62 1.62 0 0 1 1.62 1.62v126a29.43 29.43 0 0 0 29.43 29.43h64.76a1.62 1.62 0 0 0 1.17-2.79l-8.21-8.21a29.43 29.43 0 0 1-8.62-20.7V527.84a1.623 1.623 0 0 1 1.62-1.62h14a1.62 1.62 0 0 0 1.17-2.79l-54.8-54.93a1.597 1.597 0 0 0-1.16-.5Zm121.44 31.63a1.6 1.6 0 0 0-1.16.5l-54.82 54.92a1.657 1.657 0 0 0 .277 2.5c.264.181.574.282.893.29h13.76a1.62 1.62 0 0 1 1.62 1.62v94.32a29.43 29.43 0 0 0 29.43 29.43h64.89a1.62 1.62 0 0 0 1.17-2.79l-8.21-8.21a29.43 29.43 0 0 1-8.62-20.7V559.4a1.628 1.628 0 0 1 .45-1.161 1.615 1.615 0 0 1 1.14-.499h14.08a1.62 1.62 0 0 0 1.17-2.79l-54.92-54.82a1.597 1.597 0 0 0-1.16-.5h.01Zm121.44 31.66c-.433 0-.849.168-1.16.47l-54.92 55a1.614 1.614 0 0 0-.379 1.783 1.622 1.622 0 0 0 1.519 1.007h14a1.62 1.62 0 0 1 1.62 1.62v62.68a29.46 29.46 0 0 0 29.46 29.43h64.89a1.622 1.622 0 0 0 1.14-2.79l-8.21-8.21a29.431 29.431 0 0 1-8.8-20.7v-60.51a1.623 1.623 0 0 1 1.62-1.62h14.07a1.616 1.616 0 0 0 1.469-.98 1.617 1.617 0 0 0-.299-1.74l-54.92-55a1.664 1.664 0 0 0-1.16-.47l.06.03Z" fill="#fff"/></g><defs><clipPath id="a"><path fill="#fff" d="M0 0h1024v1024H0z"/></clipPath></defs></svg>

<svg width="1024" height="1024" viewBox="0 0 1024 1024" fill="none" xmlns="http://www.w3.org/2000/svg">
<g clip-path="url(#clip0_2_1818)">
<path d="M512 1024C794.77 1024 1024 794.77 1024 512C1024 229.23 794.77 0 512 0C229.23 0 0 229.23 0 512C0 794.77 229.23 1024 512 1024Z" fill="#54688C"/>
<path d="M509.08 292.75C473.502 292.547 438.542 302.043 407.955 320.217C377.369 338.391 352.313 364.556 335.48 395.9C304.541 401.439 276.177 416.707 254.518 439.484C232.858 462.261 219.034 491.356 215.057 522.534C211.081 553.713 217.16 585.346 232.409 612.83C247.658 640.314 271.281 662.214 299.84 675.34L303.57 677.06H303.78V635.06C284.17 623.028 268.817 605.161 259.873 583.963C250.929 562.766 248.842 539.301 253.906 516.858C258.969 494.415 270.928 474.119 288.107 458.816C305.286 443.512 326.823 433.967 349.7 431.52L360 430.47L364.52 421.02C377.451 393.683 397.923 370.609 423.527 354.515C449.13 338.422 478.799 329.979 509.04 330.18C545.084 330.414 580.015 342.694 608.275 365.067C636.536 387.44 656.503 418.621 665 453.65L668.45 467.83L683.04 468.07C706.933 468.573 729.684 478.392 746.442 495.431C763.199 512.47 772.636 535.382 772.74 559.28C772.74 594.16 752.63 622.62 718.51 637.08V676.93L720.96 676.1C775.96 658.1 810.18 613.35 810.18 559.29C810.031 528.027 798.564 497.877 777.9 474.416C757.236 450.956 728.774 435.775 697.78 431.68C684.997 391.58 659.861 356.549 625.967 331.596C592.073 306.643 551.157 293.046 509.07 292.75H509.08ZM388.76 468C388.544 468.001 388.331 468.046 388.134 468.132C387.936 468.218 387.758 468.343 387.61 468.5L332.61 523.42C332.392 523.654 332.247 523.946 332.191 524.26C332.135 524.574 332.171 524.898 332.295 525.193C332.418 525.487 332.624 525.74 332.887 525.92C333.151 526.101 333.461 526.202 333.78 526.21H347.78C348.21 526.21 348.622 526.381 348.926 526.685C349.229 526.989 349.4 527.401 349.4 527.83V653.83C349.4 661.636 352.501 669.121 358.02 674.64C363.539 680.16 371.025 683.26 378.83 683.26H443.59C443.918 683.27 444.241 683.181 444.516 683.004C444.792 682.827 445.008 682.57 445.134 682.268C445.261 681.965 445.293 681.632 445.226 681.311C445.159 680.99 444.997 680.697 444.76 680.47L436.55 672.26C431.058 666.768 427.959 659.327 427.93 651.56V527.84C427.93 527.411 428.101 526.999 428.404 526.695C428.708 526.391 429.12 526.22 429.55 526.22H443.55C443.878 526.23 444.201 526.141 444.476 525.964C444.752 525.787 444.968 525.53 445.094 525.228C445.221 524.925 445.253 524.592 445.186 524.271C445.119 523.95 444.957 523.657 444.72 523.43L389.92 468.5C389.771 468.342 389.591 468.216 389.392 468.13C389.192 468.044 388.977 468 388.76 468ZM510.2 499.63C509.983 499.63 509.768 499.674 509.568 499.76C509.369 499.846 509.189 499.972 509.04 500.13L454.22 555.05C454.003 555.284 453.857 555.576 453.801 555.89C453.745 556.204 453.781 556.528 453.905 556.823C454.028 557.117 454.234 557.37 454.497 557.55C454.761 557.731 455.071 557.832 455.39 557.84H469.15C469.58 557.84 469.992 558.011 470.296 558.315C470.599 558.619 470.77 559.031 470.77 559.46V653.78C470.77 661.586 473.871 669.071 479.39 674.59C484.909 680.11 492.395 683.21 500.2 683.21H565.09C565.418 683.22 565.741 683.131 566.016 682.954C566.292 682.777 566.508 682.52 566.634 682.218C566.761 681.915 566.793 681.582 566.726 681.261C566.659 680.94 566.497 680.647 566.26 680.42L558.05 672.21C552.558 666.718 549.459 659.277 549.43 651.51V559.4C549.425 559.187 549.462 558.974 549.539 558.775C549.616 558.576 549.732 558.394 549.88 558.239C550.027 558.085 550.204 557.962 550.4 557.876C550.596 557.79 550.806 557.744 551.02 557.74H565.1C565.428 557.75 565.751 557.661 566.026 557.484C566.302 557.307 566.518 557.05 566.644 556.748C566.771 556.445 566.803 556.112 566.736 555.791C566.669 555.47 566.507 555.177 566.27 554.95L511.35 500.13C511.201 499.972 511.021 499.846 510.822 499.76C510.622 499.674 510.407 499.63 510.19 499.63H510.2ZM631.64 531.29C631.207 531.29 630.791 531.458 630.48 531.76L575.56 586.76C575.325 586.985 575.163 587.275 575.096 587.593C575.028 587.911 575.058 588.242 575.181 588.543C575.304 588.844 575.514 589.101 575.785 589.281C576.056 589.46 576.375 589.554 576.7 589.55H590.7C591.13 589.55 591.542 589.721 591.846 590.025C592.149 590.329 592.32 590.741 592.32 591.17V653.85C592.328 661.658 595.435 669.144 600.959 674.662C606.483 680.181 613.972 683.28 621.78 683.28H686.67C686.995 683.284 687.314 683.19 687.585 683.011C687.856 682.831 688.066 682.574 688.189 682.273C688.312 681.972 688.342 681.641 688.274 681.323C688.207 681.005 688.045 680.715 687.81 680.49L679.6 672.28C674.042 666.818 670.877 659.373 670.8 651.58V591.07C670.8 590.641 670.971 590.229 671.274 589.925C671.578 589.621 671.99 589.45 672.42 589.45H686.49C686.803 589.447 687.109 589.352 687.37 589.178C687.63 589.004 687.835 588.758 687.959 588.47C688.083 588.183 688.121 587.865 688.067 587.556C688.014 587.247 687.873 586.96 687.66 586.73L632.74 531.73C632.429 531.428 632.013 531.26 631.58 531.26L631.64 531.29Z" fill="white"/>
</g>
<defs>
<clipPath id="clip0_2_1818">
<rect width="1024" height="1024" fill="white"/>
</clipPath>
</defs>
</svg>
